X: 32889
T: Portuguese Rain
R: reel
M: 4/4
K: Dmajor
K:GLyd
"G" G3Gd2c2|"Bm" B3B1 ABAB|"G" G2GGd2c2|"Bm" B6 B2|
"G" G3Gd2c2|"Bm" B3B ABAB|"G" G2GG dedc|"Bm" B6 B2|
"G" G2GG dGcG|"Bm" B2BB ABAB|"G" G2GG dGcG|"Bm" B4 B2B2|
"G" G2GG dGcG|"Bm" B2BB AGFA|"G" G2GG dGcG|"Bm" B6 B2|
|:"Em" fg2e "Bm" f2d2|"A" ec2 "Bm" d3B2|"Em" fg2e "Bm" f2d2|"A" e2ed c4|
"Em" fg2e "Bm" f2d2|"A" ec2 "Bm" d3B2|"Em" cdefe2d2|"A" c8:|

